X:1
T:Song 20 (Gibbons), SM
T:Song 20 (Gibbons), SM
T:Orlando Gibbons (1583-1625)
T:Public Domain Courtesy of the Cyber Hymnal™
C:Orlando Gibbons (1583-1625)
Z:Public Domain
Z:Courtesy of the Cyber Hymnal™
%%score ( 1 2 ) ( 3 4 )
L:1/8
Q:1/4=115
M:4/4
K:D
V:1 treble 
V:2 treble 
V:3 bass 
V:4 bass 
V:1
 [DF]4 | [B,F]2 [B,^G]2 [F^A]2 [DB]2 | [Fc]6 [DB]2 | [Fd]2 [GB]2 [FA]2 [EG]2 | [CF]6 [EA]2 | %5
 [FA]2 [E^G]2 [CA]2 [DF]2 | [EG]2 A2 !fermata![GB]2 [Gc]2 | [CF]2 [FB]2 B2 z x3 | [DB]6 |] %9
V:2
 x4 | x8 | x8 | x8 | x8 | x8 | x2 (EF) x4 | x4 F3 (^A2 E) | x6 |] %9
V:3
 [B,,B,]4 | [D,B,]2 [E,E]2 [F,C]2 [G,B,]2 | B,4 ^A,2 [B,,B,]2 | [B,,B,]2 [G,,D]2 [D,D]2 [E,B,]2 | %4
 [F,^A,]6 [C,=A,]2 | (DC) [E,B,]2 [A,,A,]2 A,2 | [B,,G,]2 [A,,=C]2 !fermata![G,,D]2 [E,^C]2 | %7
 [F,^A,]2 [D,B,]2 [F,C]2 [F,C]2 x2 | [B,,B,]6 |] %9
V:4
 x4 | x8 | F,6 x2 | x8 | x8 | D,2 x3 (D,=C,) x | x8 | x10 | x6 |] %9

